src/icons/svg/feature.svg

<svg width="40px" height="34.8444564px" viewBox="0 0 40 34.8444564" version="1.1" xmlns="http://www.w3.org/2000/svg"
>
    <path d="M31.9324389,34.8444564 L8.14439661,34.8444564 C6.46918235,34.8444564 4.96148953,33.6718064 4.45892525,31.9965921 L0.103368217,14.4068425 C-0.231674619,12.8991497 0.270889655,11.5589783 1.27601817,10.5538498 C2.28114668,9.54872122 3.95636098,9.38119978 5.29653236,10.0512855 L10.4896965,12.5641069 C10.8247394,12.7316283 11.1597823,12.5641069 11.3273037,12.229064 L16.6879893,2.0102571 C17.358075,0.670085713 18.6982464,0 20.0384178,0 C21.3785892,0 22.7187606,0.670085713 23.3888463,2.0102571 L28.5820104,12.229064 C28.7495319,12.5641068 29.0845747,12.5641068 29.4196176,12.5641069 L34.6127817,10.0512855 C35.9529531,9.38119978 37.4606459,9.54872122 38.6332959,10.5538498 C39.8059459,11.5589783 40.3085102,13.0666711 39.8059459,14.4068425 L35.4503889,31.8290707 C35.115346,33.6718064 33.6076532,34.8444564 31.9324389,34.8444564 Z M3.78883954,12.7316283 C3.6213181,12.7316283 3.4537967,12.8991497 3.28627526,12.8991497 C3.28627526,13.0666711 2.95123243,13.2341925 3.11875387,13.5692354 L7.4743109,31.158985 C7.4743109,31.4940279 7.80935374,31.6615493 8.14439661,31.6615493 L31.9324389,31.6615493 C32.2674818,31.6615493 32.4350032,31.4940279 32.6025246,31.158985 L36.9580817,13.7367568 C37.1256031,13.2341925 36.7905602,13.0666711 36.7905603,12.8991497 C36.6230388,12.7316283 36.4555174,12.7316283 36.1204746,12.7316283 L30.9273104,15.2444496 C29.0845747,16.0820568 26.9067962,15.4119711 25.9016676,13.7367568 L20.7085035,3.51794992 C20.540982,3.35042849 20.3734606,3.18290705 20.2059392,3.18290705 C20.0384178,3.18290705 19.8708964,3.18290705 19.7033749,3.51794992 L14.3426893,13.7367568 C13.3375608,15.5794925 11.1597822,16.2495782 9.31704656,15.4119711 L4.12388242,12.8991497 C3.95636098,12.8991497 3.78883958,12.7316283 3.78883954,12.7316283 Z"
          id="形状"></path>
    <path d="M24.5614962,28.4786422 L15.5153393,28.4786422 C14.6777322,28.4786422 14.0076465,27.8085565 14.0076465,26.9709494 C14.0076465,26.1333423 14.6777322,25.4632566 15.5153393,25.4632566 L24.5614962,25.4632566 C25.3991034,25.4632566 26.0691891,26.1333423 26.0691891,26.9709494 C26.0691891,27.8085565 25.3991034,28.4786422 24.5614962,28.4786422 Z"
          id="路径"></path>
</svg>

<svg width="40" height="34.844" xmlns="http://www.w3.org/2000/svg"><path d="M31.932 34.844H8.144c-1.675 0-3.183-1.172-3.685-2.847L.103 14.407c-.335-1.508.168-2.848 1.173-3.853 1.005-1.005 2.68-1.173 4.02-.503l5.194 2.513c.335.168.67 0 .837-.335L16.688 2.01C17.358.67 18.698 0 20.038 0c1.34 0 2.68.67 3.35 2.01l5.194 10.22c.168.334.503.334.838.334l5.193-2.513c1.34-.67 2.848-.502 4.02.503 1.173 1.005 1.676 2.513 1.173 3.853L35.45 31.829c-.335 1.843-1.842 3.015-3.518 3.015zM3.79 12.732c-.168 0-.335.167-.503.167 0 .168-.335.335-.167.67l4.355 17.59c0 .335.335.503.67.503h23.788c.335 0 .503-.168.67-.503l4.356-17.422c.168-.503-.167-.67-.167-.838-.168-.167-.335-.167-.67-.167l-5.194 2.512c-1.842.838-4.02.168-5.025-1.507l-5.193-10.22c-.168-.167-.336-.334-.503-.334-.168 0-.335 0-.503.335l-5.36 10.219c-1.005 1.842-3.183 2.513-5.026 1.675l-5.193-2.513c-.168 0-.335-.167-.335-.167z"/><path d="M24.561 28.479h-9.046c-.837 0-1.507-.67-1.507-1.508s.67-1.508 1.507-1.508h9.046c.838 0 1.508.67 1.508 1.508s-.67 1.508-1.508 1.508z"/></svg>
